SVG_Azure_Grouped/Management/Automation Linked Workspace.svg

<?xml version="1.0" encoding="UTF-8" standalone="no"?>
<!-- Generated by Microsoft Visio, SVG Export Automation Linked Workspace.svg Page-1 -->

<svg
   xmlns:dc="http://purl.org/dc/elements/1.1/"
   xmlns:cc="http://creativecommons.org/ns#"
   xmlns:rdf="http://www.w3.org/1999/02/22-rdf-syntax-ns#"
   xmlns:svg="http://www.w3.org/2000/svg"
   xmlns="http://www.w3.org/2000/svg"
   xmlns:sodipodi="http://sodipodi.sourceforge.net/DTD/sodipodi-0.dtd"
   xmlns:inkscape="http://www.inkscape.org/namespaces/inkscape"
   width="0.78745139in"
   height="0.78744793in"
   viewBox="0 0 56.696465 56.696361"
   xml:space="preserve"
   class="st4"
   version="1.1"
   id="svg46"
   sodipodi:docname="Automation Linked Workspace.svg"
   style="font-size:12px;overflow:visible;color-interpolation-filters:sRGB;fill:none;fill-rule:evenodd;stroke-linecap:square;stroke-miterlimit:3"
   inkscape:version="0.92.5 (2060ec1f9f, 2020-04-08)"><metadata
   id="metadata50"><rdf:RDF><cc:Work
       rdf:about=""><dc:format>image/svg+xml</dc:format><dc:type
         rdf:resource="http://purl.org/dc/dcmitype/StillImage" /></cc:Work></rdf:RDF></metadata><sodipodi:namedview
   pagecolor="#ffffff"
   bordercolor="#666666"
   borderopacity="1"
   objecttolerance="10"
   gridtolerance="10"
   guidetolerance="10"
   inkscape:pageopacity="0"
   inkscape:pageshadow="2"
   inkscape:window-width="640"
   inkscape:window-height="480"
   id="namedview48"
   showgrid="false"
   inkscape:zoom="1.4192955"
   inkscape:cx="37.797256"
   inkscape:cy="37.78566"
   inkscape:window-x="0"
   inkscape:window-y="0"
   inkscape:window-maximized="0"
   inkscape:current-layer="svg46" />
	<style
   type="text/css"
   id="style2">
	<![CDATA[
		.st1 {fill:url(#grad0-6);stroke:none;stroke-linecap:butt;stroke-width:34}
		.st2 {fill:url(#grad0-10);stroke:none;stroke-linecap:butt;stroke-width:34}
		.st3 {fill:#ffffff;stroke:none;stroke-linecap:butt;stroke-width:34}
		.st4 {fill:none;fill-rule:evenodd;font-size:12px;overflow:visible;stroke-linecap:square;stroke-miterlimit:3}
	]]>
	</style>

	<defs
   id="Patterns_And_Gradients">
		<linearGradient
   id="grad0-6"
   x1="0"
   y1="93.31"
   x2="31.4"
   y2="93.31"
   gradientUnits="userSpaceOnUse">
			<stop
   offset="0"
   stop-color="#1988d9"
   stop-opacity="1"
   id="stop4" />
			<stop
   offset="0.9"
   stop-color="#54aef0"
   stop-opacity="1"
   id="stop6" />
		</linearGradient>
		<linearGradient
   id="grad0-10"
   x1="-0.0010381948"
   y1="84.441934"
   x2="40.007195"
   y2="84.441934"
   gradientTransform="scale(0.99790822,1.0020962)"
   gradientUnits="userSpaceOnUse">
			<stop
   offset="0"
   stop-color="#198ab3"
   stop-opacity="1"
   id="stop9" />
			<stop
   offset="0.01"
   stop-color="#198bb4"
   stop-opacity="1"
   id="stop11" />
			<stop
   offset="0.44"
   stop-color="#27b2d7"
   stop-opacity="1"
   id="stop13" />
			<stop
   offset="0.79"
   stop-color="#2fcbed"
   stop-opacity="1"
   id="stop15" />
			<stop
   offset="1"
   stop-color="#32d4f5"
   stop-opacity="1"
   id="stop17" />
		</linearGradient>
	</defs>
	<g
   id="g44"
   transform="translate(-34.000162,-33.997938)">
		<title
   id="title21">Page-1</title>
		<g
   id="group13114-1"
   transform="translate(34,-34.0157)">
			<title
   id="title23">Automation Linked Workspace.13114</title>
			<g
   id="group13115-2">
				<title
   id="title25">Sheet.13115</title>
				<g
   id="shape13116-3">
					<title
   id="title27">Sheet.13116</title>
					<path
   d="M 16.91,110.22 H 31.4 v 14.49 H 16.91 Z M 2.01,124.71 H 14.49 V 110.22 H 0 v 12.48 a 2.01277,2.01277 -180 0 0 2.01,2.01 z M 0,107.94 H 14.49 V 93.31 H 0 Z"
   class="st1"
   id="path29"
   inkscape:connector-curvature="0"
   style="fill:url(#grad0-6);stroke:none;stroke-width:34;stroke-linecap:butt" />
				</g>
				<g
   id="shape13117-7"
   transform="translate(16.7731,-16.6053)">
					<title
   id="title32">Sheet.13117</title>
					<path
   d="m 19.96,84.62 a 19.7587,19.7587 0 0 1 19.96,20.13 19.7587,19.7587 0 0 1 -19.96,19.96 H 0 V 104.58 A 19.7587,19.7587 0 0 1 19.96,84.62 Z"
   class="st2"
   id="path34"
   inkscape:connector-curvature="0"
   style="fill:url(#grad0-10);stroke:none;stroke-width:34;stroke-linecap:butt" />
				</g>
				<g
   id="shape13118-11"
   transform="translate(23.6165,-25.8976)">
					<title
   id="title37">Sheet.13118</title>
					<path
   d="m 0,111.02 h 4.56 v 13.69 H 0 Z m 9.12,4.57 h 4.57 v 9.12 H 9.12 Z m 9.13,-9.13 h 4.56 v 18.25 h -4.56 z"
   class="st3"
   id="path39"
   inkscape:connector-curvature="0"
   style="fill:#ffffff;stroke:none;stroke-width:34;stroke-linecap:butt" />
				</g>
			</g>
		</g>
	</g>
</svg>

<?xml version="1.0" encoding="UTF-8" standalone="no"?>
<!DOCTYPE svg PUBLIC "-//W3C//DTD SVG 1.1//EN" "http://www.w3.org/Graphics/SVG/1.1/DTD/svg11.dtd">
<!-- Generated by Microsoft Visio, SVG Export Automation Linked Workspace.svg Page-1 -->
<svg xmlns="http://www.w3.org/2000/svg" xmlns:xlink="http://www.w3.org/1999/xlink" xmlns:ev="http://www.w3.org/2001/xml-events"
		width="1.73189in" height="1.73208in" viewBox="0 0 124.696 124.71" xml:space="preserve" color-interpolation-filters="sRGB"
		class="st4">
	<style type="text/css">
	<![CDATA[
		.st1 {fill:url(#grad0-6);stroke:none;stroke-linecap:butt;stroke-width:34}
		.st2 {fill:url(#grad0-10);stroke:none;stroke-linecap:butt;stroke-width:34}
		.st3 {fill:#ffffff;stroke:none;stroke-linecap:butt;stroke-width:34}
		.st4 {fill:none;fill-rule:evenodd;font-size:12px;overflow:visible;stroke-linecap:square;stroke-miterlimit:3}
	]]>
	</style>

	<defs id="Patterns_And_Gradients">
		<linearGradient id="grad0-6" x1="0" y1="0" x2="1" y2="0" gradientTransform="rotate(-90 0.5 0.5)">
			<stop offset="0" stop-color="#1988d9" stop-opacity="1"/>
			<stop offset="0.9" stop-color="#54aef0" stop-opacity="1"/>
		</linearGradient>
		<linearGradient id="grad0-10" x1="0" y1="0" x2="1" y2="0" gradientTransform="rotate(-90 0.5 0.5)">
			<stop offset="0" stop-color="#198ab3" stop-opacity="1"/>
			<stop offset="0.01" stop-color="#198bb4" stop-opacity="1"/>
			<stop offset="0.44" stop-color="#27b2d7" stop-opacity="1"/>
			<stop offset="0.79" stop-color="#2fcbed" stop-opacity="1"/>
			<stop offset="1" stop-color="#32d4f5" stop-opacity="1"/>
		</linearGradient>
	</defs>
	<g>
		<title>Page-1</title>
		<g id="group12821-1" transform="translate(34,-34.0157)">
			<title>Automation Linked Workspace.12821</title>
			<g id="group12822-2">
				<title>Sheet.12822</title>
				<g id="shape12823-3">
					<title>Sheet.12823</title>
					<path d="M16.91 110.22 L31.4 110.22 L31.4 124.71 L16.91 124.71 L16.91 110.22 ZM2.01 124.71 L14.49 124.71 L14.49
								 110.22 L0 110.22 L0 122.7 A2.01277 2.01277 -180 0 0 2.01 124.71 ZM0 107.94 L14.49 107.94 L14.49
								 93.31 L0 93.31 L0 107.94 Z" class="st1"/>
				</g>
				<g id="shape12824-7" transform="translate(16.7731,-16.6053)">
					<title>Sheet.12824</title>
					<path d="M19.96 84.62 A19.7587 19.7587 0 0 1 39.92 104.75 A19.7587 19.7587 0 0 1 19.96 124.71 L0 124.71 L0 104.58
								 A19.7587 19.7587 0 0 1 19.96 84.62 Z" class="st2"/>
				</g>
				<g id="shape12825-11" transform="translate(23.6165,-25.8976)">
					<title>Sheet.12825</title>
					<path d="M0 111.02 L4.56 111.02 L4.56 124.71 L0 124.71 L0 111.02 ZM9.12 115.59 L13.69 115.59 L13.69 124.71 L9.12
								 124.71 L9.12 115.59 ZM18.25 106.46 L22.81 106.46 L22.81 124.71 L18.25 124.71 L18.25 106.46 Z"
							class="st3"/>
				</g>
			</g>
		</g>
	</g>
</svg>
